X: 537
T: Dahong gongji
%%abc-version 2.0
%%abcx-abcm2ps-target-version 5.9.1 (29 Sep 2008)
%%abc-creator hum2abc beta
%%abcx-conversion-date 2013/10/02 07:52:30
%%abc-edited-by Helmut Schaffrath
%%humdrum-veritas 1050530257
%%humdrum-veritas-data 589970712
%%continueall 1
%%barnumbers 0
L: 1/8
M: 2/4
K: F
c c c f [I:setbarnb 1]| 
d c A G | 
d c c A/ G/ | 
F4 | 
D c c A/ G/ | 
c G/ F/C2 | 
c G G F/ D/ | 
C4 |]  



